mimetypes/symbolic/x-office-presentation-symbolic.svg

<svg enable-background="new" height="16" width="16" xmlns="http://www.w3.org/2000/svg"><path d="m2.2857144 3.1428571h4.571428a1.1428571 1.1428571 0 0 1 1.142858-1.1428571 1.1428571 1.1428571 0 0 1 1.1428567 1.1428571h4.5714289v1.1428571h-.571429v6.2857138h-3.2857142l1.0000002 3.428572h-1.1428574l-.9999999-3.428572h-1.4285713l-1 3.428572h-1.142857l1-3.428572h-3.285714v-6.2857138h-.571429zm1.714286 1.1428571v5.1428568h7.9999996v-5.1428568zm3.914285 3.9142857c-.05143.051429-.12.085714-.2.085714a.28571428.28571428 0 0 1 -.285714-.285714v-2.2857143a.28571428.28571428 0 0 1  .285714-.2857142c.08 0 .148572.034286.2.085714l.8000003.7942856c.1828571.1828572.3657143.3657143.3657143.5485715 0 .1828571-.1828572.3657142-.3657143.5485714z" fill="#bebebe" stroke-width=".571429"/></svg>

<?xml version="1.0" encoding="UTF-8" standalone="no"?>
<!-- Created with Inkscape (http://www.inkscape.org/) -->

<svg
   xmlns:osb="http://www.openswatchbook.org/uri/2009/osb"
   xmlns:dc="http://purl.org/dc/elements/1.1/"
   xmlns:cc="http://creativecommons.org/ns#"
   xmlns:rdf="http://www.w3.org/1999/02/22-rdf-syntax-ns#"
   xmlns:svg="http://www.w3.org/2000/svg"
   xmlns="http://www.w3.org/2000/svg"
   xmlns:sodipodi="http://sodipodi.sourceforge.net/DTD/sodipodi-0.dtd"
   xmlns:inkscape="http://www.inkscape.org/namespaces/inkscape"
   sodipodi:docname="x-office-presentation-symbolic.svg"
   inkscape:export-filename="/home/sam/source-symbolic.png"
   inkscape:export-xdpi="270"
   inkscape:export-ydpi="270"
   height="16"
   id="svg7384"
   style="enable-background:new"
   version="1.1"
   inkscape:version="0.92+devel unknown"
   width="16">
  <sodipodi:namedview
     inkscape:bbox-nodes="true"
     inkscape:bbox-paths="false"
     bordercolor="#666666"
     borderlayer="false"
     borderopacity="1"
     inkscape:current-layer="svg7384"
     inkscape:cx="0.52748713"
     inkscape:cy="10.147587"
     gridtolerance="10"
     inkscape:guide-bbox="true"
     guidetolerance="10"
     id="namedview88"
     inkscape:object-nodes="true"
     inkscape:object-paths="true"
     objecttolerance="10"
     pagecolor="#f7f7f7"
     inkscape:pageopacity="1"
     inkscape:pageshadow="2"
     showborder="true"
     showgrid="false"
     showguides="true"
     inkscape:showpageshadow="false"
     inkscape:snap-bbox="true"
     inkscape:snap-bbox-edge-midpoints="false"
     inkscape:snap-bbox-midpoints="true"
     inkscape:snap-center="false"
     inkscape:snap-global="true"
     inkscape:snap-grids="true"
     inkscape:snap-intersection-paths="true"
     inkscape:snap-midpoints="true"
     inkscape:snap-nodes="true"
     inkscape:snap-object-midpoints="true"
     inkscape:snap-others="true"
     inkscape:snap-page="false"
     inkscape:snap-smooth-nodes="true"
     inkscape:snap-to-guides="true"
     inkscape:window-height="642"
     inkscape:window-maximized="1"
     inkscape:window-width="1366"
     inkscape:window-x="0"
     inkscape:window-y="33"
     inkscape:zoom="31.999999"
     inkscape:document-rotation="0">
    <inkscape:grid
       color="#000000"
       dotted="false"
       empcolor="#0800ff"
       empopacity="0.4627451"
       empspacing="4"
       enabled="true"
       id="grid4866"
       opacity="0.16470588"
       originx="-463.99998"
       originy="-548.00336"
       snapvisiblegridlinesonly="true"
       spacingx="0.25"
       spacingy="0.25"
       type="xygrid"
       visible="true" />
  </sodipodi:namedview>
  <metadata
     id="metadata90">
    <rdf:RDF>
      <cc:Work
         rdf:about="">
        <dc:format>image/svg+xml</dc:format>
        <dc:type
           rdf:resource="http://purl.org/dc/dcmitype/StillImage" />
        <dc:title>Paper Symbolic Icon Theme</dc:title>
      </cc:Work>
    </rdf:RDF>
  </metadata>
  <title
     id="title8473">Paper Symbolic Icon Theme</title>
  <defs
     id="defs7386">
    <linearGradient
       id="linearGradient5606"
       osb:paint="solid">
      <stop
         id="stop5608"
         offset="0"
         style="stop-color:#000000;stop-opacity:1;" />
    </linearGradient>
    <linearGradient
       id="linearGradient4207"
       osb:paint="gradient">
      <stop
         style="stop-color:#3498db;stop-opacity:1;"
         offset="0"
         id="stop3371" />
      <stop
         style="stop-color:#3498db;stop-opacity:0;"
         offset="1"
         id="stop3373" />
    </linearGradient>
    <linearGradient
       id="linearGradient4422-1">
      <stop
         id="stop4424-78"
         offset="0"
         style="stop-color:#8798a9;stop-opacity:1" />
      <stop
         id="stop4426-8"
         offset="1"
         style="stop-color:#aeb6be;stop-opacity:1" />
    </linearGradient>
  </defs>
  <path
     id="path4274"
     d="m 2.2857144,3.1428571 h 4.571428 A 1.1428571,1.1428571 0 0 1 8.0000004,2 1.1428571,1.1428571 0 0 1 9.1428571,3.1428571 H 13.714286 V 4.2857142 H 13.142857 V 10.571428 H 9.8571428 L 10.857143,14 H 9.7142856 L 8.7142857,10.571428 H 7.2857144 l -1,3.428572 h -1.142857 l 1,-3.428572 H 2.8571434 V 4.2857142 H 2.2857144 V 3.1428571 m 1.714286,1.1428571 V 9.428571 H 12 V 4.2857142 H 4.0000004 m 3.914285,3.9142857 c -0.05143,0.051429 -0.12,0.085714 -0.2,0.085714 A 0.28571428,0.28571428 0 0 1 7.4285714,7.9999999 V 5.7142856 a 0.28571428,0.28571428 0 0 1 0.285714,-0.2857142 c 0.08,0 0.148572,0.034286 0.2,0.085714 L 8.7142857,6.308571 C 8.8971428,6.4914282 9.08,6.6742853 9.08,6.8571425 9.08,7.0399996 8.8971428,7.2228567 8.7142857,7.4057139 Z"
     inkscape:connector-curvature="0"
     style="fill:#bebebe;fill-opacity:1;stroke-width:0.57142854" />
</svg>
